casedrop/img/balance/images/tele2.svg

<svg width="95" height="37" viewBox="0 0 95 37" fill="none" xmlns="http://www.w3.org/2000/svg">
<path d="M1.33789 13.57V18.5317L14.891 17.0594V11.6891L1.33789 13.57ZM5.66293 18.8335V35.8358H10.6249V18.3327L5.66293 18.8335ZM16.7215 11.4351V35.8358H21.9499V10.7091L16.7215 11.4351ZM22.924 10.5738V16.187L30.474 15.3666V9.52618L22.924 10.5738ZM22.924 20.3648V26.0802L27.8801 25.8133V19.9435L22.924 20.3648ZM22.924 30.1999V35.8358H30.474V29.975L22.924 30.1999ZM49.999 6.80747V35.8358H56.8532V5.85604L49.999 6.80747ZM58.1332 5.67818V12.3554L68.1218 11.2707V4.29147L58.1332 5.67818ZM58.1332 17.377V24.1779L64.6801 23.8248V16.8234L58.1332 17.377ZM58.1332 29.1489V35.8358H68.1218V28.851L58.1332 29.1489ZM32.4717 9.24841V35.8358H38.4275V8.42146L32.4717 9.24841ZM39.5391 29.7049V35.8356H48.1844V29.4472L39.5391 29.7049ZM90.5159 3.96323C88.3496 1.94197 85.1734 1.11291 81.6993 1.6058V9.01161C83.1061 8.93444 84.2461 9.45006 84.7541 10.4882C85.5561 12.1249 84.7286 14.5806 82.7767 16.8559C79.764 20.3669 71.7527 27.5534 71.7527 27.5534L83.2533 27.1799C90.2804 20.4 92.8039 16.2845 93.2567 11.1481C93.4946 8.43071 92.4959 5.81244 90.5159 3.96323ZM93.6618 35.8358V28.0867L70.3352 28.7807M70.3352 28.7807L70.3376 35.8356H93.6618M80.3584 1.77204C73.5818 3.19733 70.2541 8.12097 70.6381 16.155L77.8635 15.5218C77.5343 10.9829 78.94 9.90622 80.3618 9.31422L80.3584 1.77204Z" fill="white"/>
</svg>

<svg width="95" height="37" fill="none" xmlns="http://www.w3.org/2000/svg"><path d="M1.338 13.57v4.962l13.553-1.473v-5.37L1.338 13.57zm4.325 5.264v17.002h4.962V18.333l-4.962.5zm11.058-7.399v24.4h5.229V10.71l-5.229.726zm6.203-.861v5.613l7.55-.82v-5.84l-7.55 1.047zm0 9.79v5.716l4.956-.267v-5.87l-4.956.422zm0 9.836v5.636h7.55v-5.861l-7.55.225zM49.999 6.807v29.029h6.854V5.856L50 6.807zm8.134-1.129v6.677l9.989-1.084V4.29l-9.989 1.387zm0 11.699v6.8l6.547-.352v-7.002l-6.547.554zm0 11.772v6.687h9.989V28.85l-9.989.298zm-25.661-19.9v26.587h5.956V8.42l-5.956.827zm7.067 20.456v6.13h8.645v-6.388l-8.645.258zM90.516 3.963c-2.166-2.021-5.343-2.85-8.817-2.357v7.406c1.407-.078 2.547.438 3.055 1.476.802 1.637-.025 4.093-1.977 6.368-3.013 3.51-11.024 10.697-11.024 10.697l11.5-.373c7.027-6.78 9.55-10.895 10.004-16.032a8.723 8.723 0 00-2.741-7.185zm3.146 31.873v-7.75l-23.327.695m0 0l.003 7.055h23.324M80.358 1.772c-6.776 1.425-10.104 6.349-9.72 14.383l7.225-.633c-.329-4.54 1.077-5.616 2.499-6.208l-.004-7.542z" fill="#fff"/></svg>
